X:1
T:Title
%%score { ( 1 2 3 ) | ( 4 5 ) }
L:1/8
Q:1/4=100
M:4/4
K:G
V:1 treble nm="Grand Piano"
V:2 treble 
V:3 treble 
V:4 bass 
V:5 bass 
V:1
 [DB]4 z4 | [CA]6[K:bass] z2 | A4 z4 | [B,G]6[K:bass] z2 | B,2 z F AG[Dc]B | [CE]6 z2 | [Fd]4 z4 | %7
w: John~R.~Sweney|||||||
[M:7/8] G-G-G- G- G3 |[M:1/4] d2 |[M:4/4] A4 z4 | [B,DG]6 [B,=FG]2 | [EG]4 z4[K:bass] | %12
w: |||||
[M:3/4] [B,D]6 |[M:1/4][K:treble] [B,D]2 |[M:4/4] [Fc]4 z4 | [GB]6 z2 | %16
w: ||||
 [=Fd]3 [Ec] [CE][CF] [DB]>[CA] |[M:3/4] [B,G]6 |] %18
w: ||
V:2
 z2 z B [Ec][DB][^CE][DB] | z2[K:bass] G,2 F,2 z2 | z2 z A BADA | G,2[K:bass] G,2 [D,G,]2 z2 | %4
 [DG]4 z4 | G,2 G,2 A,2 z2 | z2 z c EF B>A |[M:7/8] [G,B,]2 [E,C]2 [D,B,]3 |[M:1/4] x2 | %9
[M:4/4] z DD[DAc] [DGB][CFA][CD][CDA] | x8 | CCC[CEG] [Ec]cG[K:bass]E |[M:3/4] G,G, G,G, z2 | %13
[M:1/4][K:treble] x2 |[M:4/4] z A, z B dc[EG][DFA] | DDDD D2 B2 | x8 |[M:3/4] x6 |] %18
V:3
 z2 G,2 z4 | x2[K:bass] x6 | z2 F,2 z4 | x2[K:bass] x6 | z2 B,2 z4 | x8 | z2 A,2 z4 |[M:7/8] x7 | %8
[M:1/4] x2 |[M:4/4] x8 | x8 | x7[K:bass] x |[M:3/4] x6 |[M:1/4][K:treble] x2 |[M:4/4] z2 A,4 z2 | %15
 x8 | x8 |[M:3/4] x6 |] %18
V:4
 [G,,G,]2 z D [G,,G,]2 [G,,G,]2 | [D,F,]2 E,2 D,2 z2 | C3 C DCCC | G,,2 D,2 G,,2 z2 | %4
 G,2 z D DD z D | C,2 C,2 A,,2 z2 | [D,A,]2 z E CC D>C |[M:7/8] G,,2 G,,2 G,,3 | %8
[M:1/4][K:treble] F2 |[M:4/4] F4[K:bass] z4 | G,2 D,B,, G,,2 G,2 | C,C,C,C, z EEC | %12
[M:3/4] G,,G,, B,,D, G,2 |[M:1/4] G,2 |[M:4/4] [D,A,]D, z[K:treble] G FFD[K:bass]D, | %15
 G,G,G,G, G,2 [G,D]2 | [B,,G,]3 [C,A,] [A,,A,][A,,A,] [D,F,]>[D,F,] |[M:3/4] [G,,G,]6 |] %18
V:5
 z2 G,,2 z4 | x8 | [D,F,]2 D,2 [D,F,]2 [D,F,]2 | x8 | z2 G,2 [G,B,]2 G,2 | x8 | %6
 z2 D,2 [D,A,]2 [D,F,]2 |[M:7/8] x7 |[M:1/4][K:treble] x2 |[M:4/4] z[K:bass] D,D,D, D,D,D,D, | x8 | %11
 z4 [C,G,]4 |[M:3/4] x6 |[M:1/4] x2 |[M:4/4] z2 D,6[K:treble][K:bass] | x8 | x8 |[M:3/4] x6 |] %18

